OJJO/img/header/logo.svg

<svg width="216" height="52" viewBox="0 0 216 52" fill="none" xmlns="http://www.w3.org/2000/svg">
<path d="M44.5497 44.4793C39.5199 49.4931 33.3644 52 26.0832 52C18.8019 52 12.6224 49.4931 7.54471 44.4793C2.5149 39.4178 0 33.258 0 26C0 18.742 2.5149 12.6061 7.54471 7.59229C12.6224 2.53076 18.8019 0 26.0832 0C33.3644 0 39.5199 2.53076 44.5497 7.59229C49.6275 12.6061 52.1663 18.742 52.1663 26C52.1663 33.258 49.6275 39.4178 44.5497 44.4793ZM13.3649 38.8926C16.8139 42.2828 21.0533 43.978 26.0832 43.978C31.113 43.978 35.3284 42.2828 38.7295 38.8926C42.1785 35.4545 43.9031 31.157 43.9031 26C43.9031 20.843 42.1785 16.5693 38.7295 13.1791C35.3284 9.74105 31.113 8.02204 26.0832 8.02204C21.0533 8.02204 16.8139 9.74105 13.3649 13.1791C9.96381 16.5693 8.26326 20.843 8.26326 26C8.26326 31.157 9.96381 35.4545 13.3649 38.8926Z" fill="white"/>
<path d="M80.2047 52C72.3965 52 67.0074 48.944 64.0375 42.832L71.151 38.6777C72.7797 42.2112 75.8216 43.978 80.2766 43.978C83.1507 43.978 85.3543 43.2856 86.8872 41.9008C88.468 40.4683 89.2584 38.4628 89.2584 35.8843V0.93113H97.5216V35.8843C97.5216 41.0413 95.8929 45.0285 92.6355 47.8457C89.3781 50.6152 85.2345 52 80.2047 52Z" fill="white"/>
<path d="M128.664 52C120.856 52 115.467 48.944 112.497 42.832L119.611 38.6777C121.239 42.2112 124.281 43.978 128.736 43.978C131.61 43.978 133.814 43.2856 135.347 41.9008C136.928 40.4683 137.718 38.4628 137.718 35.8843V0.93113H145.981V35.8843C145.981 41.0413 144.353 45.0285 141.095 47.8457C137.838 50.6152 133.694 52 128.664 52Z" fill="white"/>
<path d="M208.383 44.4793C203.354 49.4931 197.198 52 189.917 52C182.636 52 176.456 49.4931 171.378 44.4793C166.349 39.4178 163.834 33.258 163.834 26C163.834 18.742 166.349 12.6061 171.378 7.59229C176.456 2.53076 182.636 0 189.917 0C197.198 0 203.354 2.53076 208.383 7.59229C213.461 12.6061 216 18.742 216 26C216 33.258 213.461 39.4178 208.383 44.4793ZM177.199 38.8926C180.648 42.2828 184.887 43.978 189.917 43.978C194.947 43.978 199.162 42.2828 202.563 38.8926C206.012 35.4545 207.737 31.157 207.737 26C207.737 20.843 206.012 16.5693 202.563 13.1791C199.162 9.74105 194.947 8.02204 189.917 8.02204C184.887 8.02204 180.648 9.74105 177.199 13.1791C173.798 16.5693 172.097 20.843 172.097 26C172.097 31.157 173.798 35.4545 177.199 38.8926Z" fill="white"/>
<path d="M36.1308 23.9329L36.1248 23.8807C36.1137 23.8154 36.0939 23.7523 36.0658 23.6936L33.1246 18.423C33.1246 18.423 32.7495 17.9062 32.6604 17.9062H20.1267L16.3574 23.5148L16.3128 23.5665L16.3068 23.5908C16.2749 23.6477 16.2488 23.7084 16.2288 23.7717L16.2135 23.8218C16.17 23.9822 16.1721 24.1537 16.2195 24.3127L16.2371 24.3691C16.2608 24.4357 16.2901 24.4967 16.3244 24.551L25.4373 37.4017L25.4559 37.4311C25.5027 37.4983 25.5598 37.5577 25.6295 37.612L25.6824 37.6487C25.7344 37.6849 25.7887 37.7138 25.8676 37.7458L25.9191 37.765C26.0083 37.7903 26.0858 37.8022 26.1615 37.8022C26.238 37.8022 26.3128 37.7908 26.4135 37.7619L26.4753 37.7376C26.5356 37.7138 26.5899 37.6844 26.6554 37.6394L26.6962 37.611C26.7663 37.5557 26.8225 37.4957 26.8536 37.4487L35.9781 24.5846C36.0588 24.4647 36.1114 24.3244 36.1313 24.1763L36.1382 24.1096L36.1419 24.0569L36.1308 23.9329ZM31.238 23.5908L32.5369 20.9744L33.8348 23.5908H31.238ZM30.4591 25.1411H33.5405L28.4045 32.3838L30.4591 25.1411ZM29.6969 22.8063L27.821 19.9734H31.103L29.6969 22.8063ZM23.6882 25.1411H28.6361L26.1615 33.8628L23.6882 25.1411ZM24.1788 23.5908L26.1615 20.5956L28.1441 23.5908H24.1788ZM22.7825 22.5717L21.9228 19.9734H24.5024L22.7825 22.5717ZM23.9193 32.3843L18.7829 25.1411H21.8647L23.9193 32.3843ZM20.4354 20.9924L21.2956 23.5908H18.7156L20.4354 20.9924Z" fill="white"/>
<path d="M199.799 23.9329L199.793 23.8807C199.782 23.8154 199.762 23.7523 199.734 23.6936L196.793 18.423C196.793 18.423 196.418 17.9062 196.329 17.9062H183.795L180.026 23.5148L179.981 23.5665L179.975 23.5908C179.943 23.6477 179.917 23.7084 179.897 23.7717L179.882 23.8218C179.838 23.9822 179.841 24.1537 179.888 24.3127L179.906 24.3691C179.929 24.4357 179.958 24.4967 179.993 24.551L189.106 37.4017L189.124 37.4311C189.171 37.4983 189.228 37.5577 189.298 37.612L189.351 37.6487C189.403 37.6849 189.457 37.7138 189.536 37.7458L189.588 37.765C189.677 37.7903 189.754 37.8022 189.83 37.8022C189.906 37.8022 189.981 37.7908 190.082 37.7619L190.144 37.7376C190.204 37.7138 190.258 37.6844 190.324 37.6394L190.365 37.611C190.435 37.5557 190.491 37.4957 190.522 37.4487L199.646 24.5846C199.727 24.4647 199.78 24.3244 199.8 24.1763L199.807 24.1096L199.81 24.0569L199.799 23.9329ZM194.906 23.5908L196.205 20.9744L197.503 23.5908H194.906ZM194.127 25.1411H197.209L192.073 32.3838L194.127 25.1411ZM193.365 22.8063L191.489 19.9734H194.771L193.365 22.8063ZM187.357 25.1411H192.305L189.83 33.8628L187.357 25.1411ZM187.847 23.5908L189.83 20.5956L191.812 23.5908H187.847ZM186.451 22.5717L185.591 19.9734H188.171L186.451 22.5717ZM187.588 32.3843L182.451 25.1411H185.533L187.588 32.3843ZM184.104 20.9924L184.964 23.5908H182.384L184.104 20.9924Z" fill="white"/>
</svg>

<svg width="216" height="52" fill="none" xmlns="http://www.w3.org/2000/svg"><path d="M44.55 44.48C39.52 49.492 33.364 52 26.083 52c-7.281 0-13.46-2.507-18.538-7.52C2.515 39.417 0 33.257 0 26c0-7.258 2.515-13.394 7.545-18.408C12.622 2.531 18.802 0 26.083 0 33.364 0 39.52 2.53 44.55 7.592c5.078 5.014 7.616 11.15 7.616 18.408 0 7.258-2.538 13.418-7.616 18.48zm-31.185-5.587c3.449 3.39 7.688 5.085 12.718 5.085s9.245-1.695 12.647-5.085c3.449-3.438 5.173-7.736 5.173-12.893 0-5.157-1.724-9.43-5.173-12.82-3.402-3.439-7.617-5.158-12.647-5.158s-9.27 1.719-12.718 5.157C9.964 16.57 8.263 20.843 8.263 26s1.7 9.455 5.102 12.893zM80.205 52c-7.808 0-13.198-3.056-16.168-9.168l7.114-4.154c1.629 3.533 4.67 5.3 9.126 5.3 2.874 0 5.077-.692 6.61-2.077 1.581-1.433 2.371-3.438 2.371-6.017V.931h8.264v34.953c0 5.157-1.63 9.145-4.887 11.962-3.257 2.77-7.4 4.154-12.43 4.154zm48.459 0c-7.808 0-13.197-3.056-16.167-9.168l7.114-4.154c1.628 3.533 4.67 5.3 9.125 5.3 2.874 0 5.078-.692 6.611-2.077 1.581-1.433 2.371-3.438 2.371-6.017V.931h8.263v34.953c0 5.157-1.628 9.145-4.886 11.962-3.257 2.77-7.401 4.154-12.431 4.154zm79.719-7.52c-5.029 5.013-11.185 7.52-18.466 7.52-7.281 0-13.461-2.507-18.539-7.52-5.029-5.062-7.544-11.222-7.544-18.48 0-7.258 2.515-13.394 7.544-18.408C176.456 2.531 182.636 0 189.917 0c7.281 0 13.437 2.53 18.466 7.592C213.461 12.606 216 18.742 216 26c0 7.258-2.539 13.418-7.617 18.48zm-31.184-5.587c3.449 3.39 7.688 5.085 12.718 5.085s9.245-1.695 12.646-5.085c3.449-3.438 5.174-7.736 5.174-12.893 0-5.157-1.725-9.43-5.174-12.82-3.401-3.439-7.616-5.158-12.646-5.158-5.03 0-9.269 1.719-12.718 5.157-3.401 3.39-5.102 7.664-5.102 12.821s1.701 9.455 5.102 12.893z" fill="#fff"/><path d="M36.13 23.933l-.005-.052a.708.708 0 00-.06-.187l-2.94-5.271s-.376-.517-.465-.517H20.127l-3.77 5.609-.044.052-.006.024a.963.963 0 00-.078.18l-.015.05a.9.9 0 00.006.492l.017.056a.914.914 0 00.087.182l9.113 12.85.019.03a.828.828 0 00.174.181l.052.037a.897.897 0 00.186.097l.051.019c.09.025.167.037.242.037a.877.877 0 00.252-.04l.062-.024a.87.87 0 00.18-.099l.041-.028a.762.762 0 00.158-.162l9.124-12.864a.97.97 0 00.153-.409l.007-.066.004-.053-.011-.124zm-4.892-.342l1.299-2.617 1.298 2.617h-2.597zm-.779 1.55h3.082l-5.136 7.243 2.054-7.243zm-.762-2.335l-1.876-2.833h3.282l-1.406 2.833zm-6.009 2.335h4.948l-2.474 8.722-2.474-8.722zm.49-1.55l1.983-2.995 1.983 2.995H24.18zm-1.396-1.02l-.86-2.598h2.58l-1.72 2.599zm1.137 9.813l-5.136-7.243h3.082l2.054 7.243zm-3.484-11.392l.86 2.599h-2.58l1.72-2.599zm179.364 2.941l-.006-.052a.708.708 0 00-.059-.187l-2.941-5.271s-.375-.517-.464-.517h-12.534l-3.769 5.609-.045.052-.006.024a.957.957 0 00-.078.18l-.015.05a.9.9 0 00.006.492l.018.056a.843.843 0 00.087.182l9.113 12.85.018.03a.827.827 0 00.174.181l.053.037a.892.892 0 00.185.097l.052.019a.87.87 0 00.242.037.881.881 0 00.252-.04l.062-.024a.89.89 0 00.18-.099l.041-.028a.759.759 0 00.157-.162l9.124-12.864a.96.96 0 00.154-.409l.007-.066.003-.053-.011-.124zm-4.893-.342l1.299-2.617 1.298 2.617h-2.597zm-.779 1.55h3.082l-5.136 7.243 2.054-7.243zm-.762-2.335l-1.876-2.833h3.282l-1.406 2.833zm-6.008 2.335h4.948l-2.475 8.722-2.473-8.722zm.49-1.55l1.983-2.995 1.982 2.995h-3.965zm-1.396-1.02l-.86-2.598h2.58l-1.72 2.599zm1.137 9.813l-5.137-7.243h3.082l2.055 7.243zm-3.484-11.392l.86 2.599h-2.58l1.72-2.599z" fill="#fff"/></svg>
